src/images/category_placeholder.svg

<svg width="99" height="100" viewBox="0 0 99 100" fill="none" xmlns="http://www.w3.org/2000/svg">
<rect x="0.5" y="0.5" width="98" height="99" rx="49" fill="#EAEAEA" stroke="#C4C4C4"/>
<path d="M34 42.6C34 40.6118 35.6926 39 37.7805 39C39.8684 39 41.561 40.6118 41.561 42.6C41.561 44.5882 39.8684 46.2 37.7805 46.2C35.6926 46.2 34 44.5882 34 42.6Z" fill="#959595"/>
<path d="M65 57H34.7561V52.68L38.4907 49.1236C38.9336 48.7019 39.6517 48.7019 40.0946 49.1236L43.8293 52.68L55.1248 41.9237C55.5678 41.5019 56.2859 41.5019 56.7288 41.9237L65 49.8V57Z" fill="#959595"/>
</svg>

<svg xmlns="http://www.w3.org/2000/svg" width="99" height="100" fill="none"><rect width="98" height="99" x=".5" y=".5" fill="#EAEAEA" stroke="#C4C4C4" rx="49"/><path fill="#959595" d="M34 42.6c0-2 1.7-3.6 3.8-3.6 2 0 3.8 1.6 3.8 3.6s-1.7 3.6-3.8 3.6c-2.1 0-3.8-1.6-3.8-3.6zM65 57H34.8v-4.3l3.7-3.6c.4-.4 1.2-.4 1.6 0l3.7 3.6 11.3-10.8c.5-.4 1.2-.4 1.6 0l8.3 7.9V57z"/></svg>
